src/assets/svg/pad.svg

<svg width="34" height="48" viewBox="0 0 34 48" fill="none" xmlns="http://www.w3.org/2000/svg">
<g clip-path="url(#clip0_14_2193)">
<path d="M32.8268 0H1.17712C0.526195 0 0 0.519522 0 1.16219V46.8417C0 47.4843 0.526195 48.0038 1.17712 48.0038H32.8268C33.4777 48.0038 34.0039 47.4843 34.0039 46.8417V1.16219C34 0.519522 33.4738 0 32.8268 0Z" fill="url(#paint0_linear_14_2193)"/>
<path d="M30.749 2.07043H3.25043C2.61899 2.07043 2.10449 2.57841 2.10449 3.20569V40.973C2.10449 41.6003 2.61899 42.1044 3.25043 42.1044H30.749C31.3843 42.1044 31.8949 41.5964 31.8949 40.973V3.20569C31.8949 2.57841 31.3843 2.07043 30.749 2.07043Z" fill="white"/>
<path d="M22.6228 20.0266H11.3818C10.8673 20.0266 10.4502 19.6148 10.4502 19.1068V8.00446C10.4502 7.49649 10.8673 7.08472 11.3818 7.08472H22.6228C23.1373 7.08472 23.5544 7.49649 23.5544 8.00446V19.103C23.5544 19.611 23.1373 20.0266 22.6228 20.0266Z" fill="url(#paint1_linear_14_2193)"/>
<path d="M17.0021 46.7608C17.9579 46.7608 18.7327 45.9958 18.7327 45.0521C18.7327 44.1085 17.9579 43.3435 17.0021 43.3435C16.0463 43.3435 15.2715 44.1085 15.2715 45.0521C15.2715 45.9958 16.0463 46.7608 17.0021 46.7608Z" fill="white"/>
<path d="M26.7971 25.776H7.20311C6.7081 25.776 6.30273 25.3757 6.30273 24.887C6.30273 24.3983 6.7081 23.998 7.20311 23.998H26.7932C27.2882 23.998 27.6935 24.3983 27.6935 24.887C27.6935 25.3757 27.2921 25.776 26.7971 25.776Z" fill="url(#paint2_linear_14_2193)"/>
<path opacity="0.6" d="M23.4801 30.7019H6.87571C6.55999 30.7019 6.30664 30.4479 6.30664 30.14V30.0785C6.30664 29.7667 6.56389 29.5166 6.87571 29.5166H23.4801C23.7958 29.5166 24.0492 29.7706 24.0492 30.0785V30.14C24.0531 30.4479 23.7958 30.7019 23.4801 30.7019Z" fill="url(#paint3_linear_14_2193)"/>
<path opacity="0.3" d="M20.319 33.8305H6.82113C6.5366 33.8305 6.30273 33.5997 6.30273 33.3187V33.1494C6.30273 32.8685 6.5366 32.6376 6.82113 32.6376H20.3151C20.5997 32.6376 20.8335 32.8685 20.8335 33.1494V33.3187C20.8335 33.5997 20.5997 33.8305 20.319 33.8305Z" fill="url(#paint4_linear_14_2193)"/>
<path opacity="0.6" d="M22.0184 36.7282H6.85232C6.5522 36.7282 6.30664 36.4858 6.30664 36.1895V36.0817C6.30664 35.7854 6.5522 35.543 6.85232 35.543H22.0184C22.3186 35.543 22.5641 35.7854 22.5641 36.0817V36.1895C22.5641 36.482 22.3186 36.7282 22.0184 36.7282Z" fill="url(#paint5_linear_14_2193)"/>
<path d="M17.0357 13.1979C18.1612 13.1979 19.0736 12.285 19.0736 11.1589C19.0736 10.0328 18.1612 9.12 17.0357 9.12C15.9102 9.12 14.9978 10.0328 14.9978 11.1589C14.9978 12.285 15.9059 13.1979 17.0357 13.1979ZM17.0357 14.2173C15.6757 14.2173 12.96 14.8998 12.96 16.2563V16.7681C12.96 17.0497 13.1902 17.28 13.4716 17.28H20.6084C20.8897 17.28 21.12 17.0497 21.12 16.7681V16.2563C21.1114 14.9041 18.3957 14.2173 17.0357 14.2173Z" fill="white"/>
</g>
<defs>
<linearGradient id="paint0_linear_14_2193" x1="2.05995" y1="22.7521" x2="34.0267" y2="25.4925" gradientUnits="userSpaceOnUse">
<stop stop-color="#6CBCFC"/>
<stop offset="1" stop-color="#458DFC"/>
</linearGradient>
<linearGradient id="paint1_linear_14_2193" x1="9.434" y1="9.74769" x2="24.4881" y2="17.5167" gradientUnits="userSpaceOnUse">
<stop stop-color="#B0F4FF"/>
<stop offset="0.0856277" stop-color="#A3F0FE"/>
<stop offset="0.2972" stop-color="#8AE7FD"/>
<stop offset="0.5161" stop-color="#77E1FD"/>
<stop offset="0.7451" stop-color="#6DDDFC"/>
<stop offset="1" stop-color="#69DCFC"/>
</linearGradient>
<linearGradient id="paint2_linear_14_2193" x1="27.6954" y1="24.8877" x2="6.30641" y2="24.8877" gradientUnits="userSpaceOnUse">
<stop stop-color="#6CBCFC"/>
<stop offset="1" stop-color="#458DFC"/>
</linearGradient>
<linearGradient id="paint3_linear_14_2193" x1="24.0519" y1="30.1075" x2="6.30642" y2="30.1075" gradientUnits="userSpaceOnUse">
<stop stop-color="#6CBCFC"/>
<stop offset="1" stop-color="#458DFC"/>
</linearGradient>
<linearGradient id="paint4_linear_14_2193" x1="20.8339" y1="33.2362" x2="6.30641" y2="33.2362" gradientUnits="userSpaceOnUse">
<stop stop-color="#6CBCFC"/>
<stop offset="1" stop-color="#458DFC"/>
</linearGradient>
<linearGradient id="paint5_linear_14_2193" x1="22.5638" y1="36.1325" x2="6.30642" y2="36.1325" gradientUnits="userSpaceOnUse">
<stop stop-color="#6CBCFC"/>
<stop offset="1" stop-color="#458DFC"/>
</linearGradient>
<clipPath id="clip0_14_2193">
<rect width="34" height="48" fill="white"/>
</clipPath>
</defs>
</svg>

<svg width="34" height="48" fill="none" xmlns="http://www.w3.org/2000/svg"><g clip-path="url(#clip0_14_2193)"><path d="M32.827 0H1.177C.527 0 0 .52 0 1.162v45.68c0 .642.526 1.162 1.177 1.162h31.65c.65 0 1.177-.52 1.177-1.162V1.162A1.174 1.174 0 0032.827 0z" fill="url(#paint0_linear_14_2193)"/><path d="M30.749 2.07H3.25c-.631 0-1.146.508-1.146 1.136v37.767c0 .627.515 1.131 1.146 1.131H30.75c.635 0 1.146-.508 1.146-1.131V3.206c0-.628-.51-1.136-1.146-1.136z" fill="#fff"/><path d="M22.623 20.027H11.382a.926.926 0 01-.932-.92V8.004c0-.508.417-.92.932-.92h11.24c.515 0 .932.412.932.92v11.099a.929.929 0 01-.931.924z" fill="url(#paint1_linear_14_2193)"/><path d="M17.002 46.76a1.72 1.72 0 001.73-1.708 1.72 1.72 0 00-1.73-1.709 1.72 1.72 0 00-1.73 1.71 1.72 1.72 0 001.73 1.708z" fill="#fff"/><path d="M26.797 25.776H7.203c-.495 0-.9-.4-.9-.889s.405-.889.9-.889h19.59c.495 0 .9.4.9.889a.894.894 0 01-.896.889z" fill="url(#paint2_linear_14_2193)"/><path opacity=".6" d="M23.48 30.702H6.876a.566.566 0 01-.57-.562v-.062c0-.311.258-.561.57-.561H23.48c.316 0 .57.254.57.561v.062a.564.564 0 01-.57.562z" fill="url(#paint3_linear_14_2193)"/><path opacity=".3" d="M20.319 33.83H6.821a.517.517 0 01-.518-.511v-.17c0-.28.234-.511.518-.511h13.494c.285 0 .518.23.518.511v.17a.516.516 0 01-.514.511z" fill="url(#paint4_linear_14_2193)"/><path opacity=".6" d="M22.018 36.728H6.852a.544.544 0 01-.545-.538v-.108c0-.297.245-.539.545-.539h15.166c.3 0 .546.242.546.539v.108a.546.546 0 01-.546.538z" fill="url(#paint5_linear_14_2193)"/><path d="M17.036 13.198a2.038 2.038 0 10-.001-4.077 2.038 2.038 0 000 4.077zm0 1.02c-1.36 0-4.076.682-4.076 2.038v.512c0 .282.23.512.512.512h7.136c.282 0 .512-.23.512-.512v-.512c-.009-1.352-2.724-2.039-4.084-2.039z" fill="#fff"/></g><defs><linearGradient id="paint0_linear_14_2193" x1="2.06" y1="22.752" x2="34.027" y2="25.492" gradientUnits="userSpaceOnUse"><stop stop-color="#6CBCFC"/><stop offset="1" stop-color="#458DFC"/></linearGradient><linearGradient id="paint1_linear_14_2193" x1="9.434" y1="9.748" x2="24.488" y2="17.517" gradientUnits="userSpaceOnUse"><stop stop-color="#B0F4FF"/><stop offset=".086" stop-color="#A3F0FE"/><stop offset=".297" stop-color="#8AE7FD"/><stop offset=".516" stop-color="#77E1FD"/><stop offset=".745" stop-color="#6DDDFC"/><stop offset="1" stop-color="#69DCFC"/></linearGradient><linearGradient id="paint2_linear_14_2193" x1="27.695" y1="24.888" x2="6.306" y2="24.888" gradientUnits="userSpaceOnUse"><stop stop-color="#6CBCFC"/><stop offset="1" stop-color="#458DFC"/></linearGradient><linearGradient id="paint3_linear_14_2193" x1="24.052" y1="30.108" x2="6.306" y2="30.108" gradientUnits="userSpaceOnUse"><stop stop-color="#6CBCFC"/><stop offset="1" stop-color="#458DFC"/></linearGradient><linearGradient id="paint4_linear_14_2193" x1="20.834" y1="33.236" x2="6.306" y2="33.236" gradientUnits="userSpaceOnUse"><stop stop-color="#6CBCFC"/><stop offset="1" stop-color="#458DFC"/></linearGradient><linearGradient id="paint5_linear_14_2193" x1="22.564" y1="36.133" x2="6.306" y2="36.133" gradientUnits="userSpaceOnUse"><stop stop-color="#6CBCFC"/><stop offset="1" stop-color="#458DFC"/></linearGradient><clipPath id="clip0_14_2193"><path fill="#fff" d="M0 0h34v48H0z"/></clipPath></defs></svg>
